X:1
T: Rusty's Jig
C:Gordy Euler
R:Jig
Q:180
K:G
M:6/8
L:1/16
|:B2A2B2 c2B2c2|d2^c2d2 e4g2|d2B2G2 c2B2A2|F2A2F2 D2F2A2|
B2A2B2 c2B2c2|d2^c2d2 e4g2|d2B2A2 c2B2A2|F2A2F2 G6:|
|:g6f6|g2d2B2 G2A2B2|c2d2e2 B2c2d2|A2B2c2 d2e2f2|
g6f6|g2d2B2 c4d2|e2c2A2 d2B2G2|c2A2F2 G6:|
